Newaita-dark/actions/16/object-rotate-right.svg

<svg height="16" viewBox="0 0 16 16" width="16" xmlns="http://www.w3.org/2000/svg"><g fill="#e0e0e0"><path d="m13.230469 1.449219c.734375 0 1.324219.589843 1.324219 1.320312v4.632813c0 .730468-.589844 1.324218-1.324219 1.324218h-2.644531c-.734376 0-1.324219-.59375-1.324219-1.324218v-4.632813c0-.730469.589843-1.320312 1.324219-1.320312zm0 0"/><path d="m1.324219 10.710938c0-.734376.589843-1.324219 1.320312-1.324219h4.632813c.730468 0 1.324218.589843 1.324218 1.324219v2.644531c0 .734375-.59375 1.324219-1.324218 1.324219h-4.632813c-.730469 0-1.320312-.589844-1.320312-1.324219zm1.320312.660156v1.324218c0 .363282.296875.660157.664063.660157h3.304687c.367188 0 .664063-.296875.664063-.660157v-1.324218c0-.367188-.296875-.660156-.664063-.660156h-3.304687c-.367188 0-.664063.292968-.664063.660156zm0 0"/><path d="m7.9375 4.394531v1.53125c-.851562.554688-1.582031 1.285157-2.136719 2.136719h-1.53125c.816407-1.570312 2.097657-2.851562 3.667969-3.667969zm0 0"/></g></svg>

<svg xmlns="http://www.w3.org/2000/svg" xmlns:xlink="http://www.w3.org/1999/xlink" width="16px" height="16px" viewBox="0 0 16 16" version="1.1">
<g id="surface1">
     <defs>
  <style id="current-color-scheme" type="text/css">
   .ColorScheme-Text { color:#eeeeee; } .ColorScheme-Highlight { color:#424242; }
  </style>
 </defs>
<path style="fill:currentColor" class="ColorScheme-Text" d="M 13.230469 1.449219 C 13.964844 1.449219 14.554688 2.039062 14.554688 2.769531 L 14.554688 7.402344 C 14.554688 8.132812 13.964844 8.726562 13.230469 8.726562 L 10.585938 8.726562 C 9.851562 8.726562 9.261719 8.132812 9.261719 7.402344 L 9.261719 2.769531 C 9.261719 2.039062 9.851562 1.449219 10.585938 1.449219 Z M 13.230469 1.449219 "/>
     <defs>
  <style id="current-color-scheme" type="text/css">
   .ColorScheme-Text { color:#eeeeee; } .ColorScheme-Highlight { color:#424242; }
  </style>
 </defs>
<path style="fill:currentColor" class="ColorScheme-Text" d="M 1.324219 10.710938 C 1.324219 9.976562 1.914062 9.386719 2.644531 9.386719 L 7.277344 9.386719 C 8.007812 9.386719 8.601562 9.976562 8.601562 10.710938 L 8.601562 13.355469 C 8.601562 14.089844 8.007812 14.679688 7.277344 14.679688 L 2.644531 14.679688 C 1.914062 14.679688 1.324219 14.089844 1.324219 13.355469 Z M 2.644531 11.371094 L 2.644531 12.695312 C 2.644531 13.058594 2.941406 13.355469 3.308594 13.355469 L 6.613281 13.355469 C 6.980469 13.355469 7.277344 13.058594 7.277344 12.695312 L 7.277344 11.371094 C 7.277344 11.003906 6.980469 10.710938 6.613281 10.710938 L 3.308594 10.710938 C 2.941406 10.710938 2.644531 11.003906 2.644531 11.371094 Z M 2.644531 11.371094 "/>
     <defs>
  <style id="current-color-scheme" type="text/css">
   .ColorScheme-Text { color:#eeeeee; } .ColorScheme-Highlight { color:#424242; }
  </style>
 </defs>
<path style="fill:currentColor" class="ColorScheme-Text" d="M 7.9375 4.394531 L 7.9375 5.925781 C 7.085938 6.480469 6.355469 7.210938 5.800781 8.0625 L 4.269531 8.0625 C 5.085938 6.492188 6.367188 5.210938 7.9375 4.394531 Z M 7.9375 4.394531 "/>
</g>
</svg>
